X: 100361
M: C
L: 1/8
K: G
(uB>c) |\
(d>b)g>d (B>g)d>B | (G>F)G>A (B>G)E>C | (B,>D)G>B (d>B)G>B | (A^G)A>B A2B<c |
(d>b)g>d (B>g)d>B | (G>F)G>A (B>G)E>C | (B,>D)G>B (d>c)E>F | G2B2 G2 :||: (uB>A) |


